X:285
M:4/4
L:1/4
K:F
F2 | G G F2 | D2 C2 | D2 E2 | F4 | A2 c2 | d2 c2 | A2 F2 | D2 E2 | F4 | A3/2 A/ A G | A2 F F | G G A2 | F2 G G | A2 F2 | D F F G | (F2 D2) | C4 | !sintro!D3/2 E/ F2 | F4 !eintro!|]
